calendar-star.svg

<svg fill="currentColor" viewBox="0 0 24 24"><path d="M19 19H5V8h14m-3-7v2H8V1H6v2H5c-1.1 0-2 .9-2 2v14a2 2 0 0 0 2 2h14c1.11 0 2-.89 2-2V5a2 2 0 0 0-2-2h-1V1m-7.12 11H7.27l2.92 2.11-1.11 3.45L12 15.43l2.92 2.13-1.12-3.44L16.72 12h-3.6L12 8.56z"/></svg>

<svg  viewBox="0 0 24 24" fill="currentColor"><path  d="M19 19H5V8H19M16 1V3H8V1H6V3H5C3.9 3 3 3.9 3 5V19C3 20.11 3.9 21 5 21H19C20.11 21 21 20.11 21 19V5C21 3.9 20.11 3 19 3H18V1M10.88 12H7.27L10.19 14.11L9.08 17.56L12 15.43L14.92 17.56L13.8 14.12L16.72 12H13.12L12 8.56L10.88 12Z"/></svg>
